public/svgs/light/cabinet-filing.svg

<svg xmlns="http://www.w3.org/2000/svg" viewBox="0 0 448 512"><!-- Font Awesome Pro 6.0.0-alpha2 by @fontawesome - https://fontawesome.com License - https://fontawesome.com/license (Commercial License) --><path d="M384 0H64C28.654 0 0 28.654 0 64V448C0 483.346 28.654 512 64 512H384C419.346 512 448 483.346 448 448V64C448 28.654 419.346 0 384 0ZM416 448C416 465.674 401.674 480 384 480H64C46.326 480 32 465.674 32 448V272H416V448ZM416 240H32V64C32 46.326 46.326 32 64 32H384C401.674 32 416 46.326 416 64V240ZM304 96H144C135.156 96 128 103.156 128 112V144C128 152.844 135.156 160 144 160S160 152.844 160 144V128H288V144C288 152.844 295.156 160 304 160S320 152.844 320 144V112C320 103.156 312.844 96 304 96ZM144 416C152.844 416 160 408.844 160 400V384H288V400C288 408.844 295.156 416 304 416S320 408.844 320 400V368C320 359.156 312.844 352 304 352H144C135.156 352 128 359.156 128 368V400C128 408.844 135.156 416 144 416Z"/></svg>

<svg xmlns="http://www.w3.org/2000/svg" viewBox="0 0 448 512"><!--! Font Awesome Pro 6.5.1 by @fontawesome - https://fontawesome.com License - https://fontawesome.com/license (Commercial License) Copyright 2023 Fonticons, Inc. --><path d="M416 240H32V64c0-17.7 14.3-32 32-32H384c17.7 0 32 14.3 32 32V240zM0 256v16V448c0 35.3 28.7 64 64 64H384c35.3 0 64-28.7 64-64V272 256 240 64c0-35.3-28.7-64-64-64H64C28.7 0 0 28.7 0 64V240v16zM416 448c0 17.7-14.3 32-32 32H64c-17.7 0-32-14.3-32-32V272H416V448zM160 96c-17.7 0-32 14.3-32 32v16c0 8.8 7.2 16 16 16s16-7.2 16-16V128H288v16c0 8.8 7.2 16 16 16s16-7.2 16-16V128c0-17.7-14.3-32-32-32H160zm0 256c-17.7 0-32 14.3-32 32v16c0 8.8 7.2 16 16 16s16-7.2 16-16V384H288v16c0 8.8 7.2 16 16 16s16-7.2 16-16V384c0-17.7-14.3-32-32-32H160z"/></svg>
